src/icons/SVG/32px/Universe_Curtains_32px.svg

<svg width="32" height="32" viewBox="0 0 32 32" fill="none" xmlns="http://www.w3.org/2000/svg">
<g id="Square"> </g>
<g id="Icon">
<path id="Union" fill-rule="evenodd" clip-rule="evenodd" d="M4 3C3.44772 3 3 3.44772 3 4C3 4.55228 3.44772 5 4 5H5.66667V18.6667V28C5.66667 28.5523 6.11438 29 6.66667 29H12C12.3138 29 12.6094 28.8527 12.7983 28.6022C12.9873 28.3517 13.0477 28.027 12.9615 27.7253L12.7543 27H19.2457L19.0385 27.7253C18.9523 28.027 19.0127 28.3517 19.2017 28.6022C19.3906 28.8527 19.6862 29 20 29H25.3333C25.8856 29 26.3333 28.5523 26.3333 28V18.6667V5H28C28.5523 5 29 4.55228 29 4C29 3.44772 28.5523 3 28 3H25.3333H16H6.66667H4ZM19.8171 25L21.1028 20.5H16.5V25H19.8171ZM15.5 25V20.5H10.8972L12.1829 25H15.5ZM15.5 19.5H10.6114L10.5892 19.4222C10.6318 19.4078 10.6751 19.3925 10.7193 19.3764C11.4841 19.0959 12.4568 18.5508 13.4066 17.506C14.1696 16.6667 14.8996 15.5265 15.5 13.9784V19.5ZM21.3886 19.5H16.5V13.9784C17.1004 15.5265 17.8304 16.6667 18.5934 17.506C19.5432 18.5508 20.5159 19.0959 21.2807 19.3764C21.3249 19.3925 21.3682 19.4078 21.4108 19.4222L21.3886 19.5ZM7.66667 17.6667V5H14.9891C14.8449 11.5185 13.2931 14.6576 11.9267 16.1607C11.2099 16.9492 10.5159 17.3207 10.0307 17.4986C9.7857 17.5885 9.58926 17.6305 9.46455 17.6501C9.40223 17.6599 9.35807 17.6641 9.33507 17.6658L9.32094 17.6667H7.66667ZM24.3333 5H17.0109C17.1551 11.5185 18.7069 14.6576 20.0733 16.1607C20.7901 16.9492 21.4841 17.3207 21.9693 17.4986C22.2143 17.5885 22.4107 17.6305 22.5354 17.6501C22.5978 17.6599 22.6419 17.6641 22.6649 17.6658L22.6791 17.6667H24.3333V5ZM21.3257 27L23.421 19.6667H24.3333V27H21.3257ZM7.66667 19.6667H8.57903L10.6743 27H7.66667V19.6667Z" fill="black"/>
</g>
</svg>

<svg xmlns="http://www.w3.org/2000/svg" viewBox="0 0 32 32">
  <g id="Square"> </g>
  <path fill-rule="evenodd" d="M4 3a1 1 0 000 2h1.667v23a1 1 0 001 1H12a1 1 0 00.961-1.275L12.754 27h6.492l-.207.725A1 1 0 0020 29h5.333a1 1 0 001-1V5H28a1 1 0 100-2H4zm15.817 22l1.286-4.5H16.5V25h3.317zM15.5 25v-4.5h-4.603l1.286 4.5H15.5zm0-5.5h-4.889l-.022-.078c.043-.014.086-.03.13-.046.765-.28 1.738-.825 2.688-1.87.763-.84 1.493-1.98 2.093-3.528V19.5zm5.889 0H16.5v-5.522c.6 1.549 1.33 2.689 2.093 3.528.95 1.045 1.923 1.59 2.688 1.87.044.016.087.032.13.046l-.022.078zM7.667 17.667V5h7.322c-.144 6.518-1.696 9.658-3.062 11.16-.717.79-1.411 1.16-1.896 1.339-.245.09-.442.132-.566.151-.063.01-.107.014-.13.016H7.667zM24.333 5h-7.322c.144 6.518 1.696 9.658 3.062 11.16.717.79 1.411 1.16 1.896 1.339.245.09.442.132.566.151.063.01.107.014.13.016h1.668V5zm-3.007 22l2.095-7.333h.912V27h-3.007zm-13.66-7.333h.913L10.674 27H7.667v-7.333z"/>
</svg>
